public/avatar/shoe/80.svg

<svg xmlns:xlink="http://www.w3.org/1999/xlink" height="38.3" width="36.05" xmlns="http://www.w3.org/2000/svg"><use height="20.8" transform="translate(13.95 9.2)" width="19" xlink:href="#a"/><defs><g id="a"><path d="M0-4.45q1.55-.75 2.85-.65 4.1-.35 5.35 3.9 1.2 3.95-.9 6.8.2 2.35-.4 4.05-.45 1.35-2 .75.45-3-.3-4.05-.4-.45-.7 1.7l-.2 2.35q-.6 2.25-5.25 3.65-4.8 1.4-7.35-.35-1.25-2.05.95-5.25Q-5 3.95-4.5 1-3.2-3.05 0-4.45" fill="#fff" fill-rule="evenodd" transform="translate(9.85 5.65)"/><path d="M0-4.45q1.55-.75 2.85-.65 4.1-.35 5.35 3.9 1.2 3.95-.9 6.8.2 2.35-.4 4.05-.45 1.35-2 .75.45-3-.3-4.05-.4-.45-.7 1.7l-.2 2.35q-.6 2.25-5.25 3.65-4.8 1.4-7.35-.35-1.25-2.05.95-5.25Q-5 3.95-4.5 1-3.2-3.05 0-4.45" fill="#fff" fill-rule="evenodd" transform="translate(9.85 5.65)"/><path d="M2.85-5.1q-1.3-.1-2.85.65Q-3.15-3.05-4.45 1q-.5 2.95-3.5 7.5-2.2 3.15-.95 5.2 2.6 1.75 7.4.35 4.65-1.4 5.2-3.65l.2-2.3q.25-2.2.7-1.75.8 1.05.25 4.05 1.55.6 1.95-.7.7-1.75.45-4.05 2.2-2.85 1-6.85Q7-5.45 2.85-5.1Z" fill="none" stroke="#50617d" stroke-linecap="round" stroke-linejoin="round" transform="translate(9.85 5.65)"/><path d="M6.95 5.4v2.35q-.25 1.7-.6 2.1-.6.8-1.1.4.45-1.45.25-2.95-.3-1.55-1.15-1.5L3.3 10.45q-1.45 2.2-5.35 3.1-3.55.8-5.9-.1l-.8-.75.05-1q9.1.6 10.75-3.25L3.4 5.6q1.1-1.3 4.05-1.45-.25 1.2-.5 1.25" fill="#73c2f4" fill-rule="evenodd" transform="translate(9.85 5.65)"/><path d="m6.25 15.1 1.5-3.15.8-2.95q.8-2.9 1.7-3.65" fill="none" stroke="#809cc9" stroke-linecap="round" stroke-linejoin="round" stroke-width=".75"/><path d="M4.55 6.95q.3.7.15 4.15-.35-.1-.4-.5l.25-3.65" fill="#2f4968" fill-rule="evenodd" transform="translate(9.85 5.65)"/></g></defs></svg>

<?xml version="1.0" encoding="UTF-8" standalone="no"?>
<svg xmlns:xlink="http://www.w3.org/1999/xlink" height="38.3px" width="36.05px" xmlns="http://www.w3.org/2000/svg">
  <g transform="matrix(1.0, 0.0, 0.0, 1.0, 23.8, 14.85)">
    <use height="20.8" transform="matrix(1.0, 0.0, 0.0, 1.0, -9.85, -5.65)" width="19.0" xlink:href="#shape0"/>
  </g>
  <defs>
    <g id="shape0" transform="matrix(1.0, 0.0, 0.0, 1.0, 9.85, 5.65)">
      <path d="M0.0 -4.45 Q1.55 -5.2 2.85 -5.1 6.95 -5.45 8.2 -1.2 9.4 2.75 7.3 5.6 7.5 7.95 6.9 9.65 6.45 11.0 4.9 10.4 5.35 7.4 4.6 6.35 4.2 5.9 3.9 8.05 L3.7 10.4 Q3.1 12.65 -1.55 14.05 -6.35 15.45 -8.9 13.7 -10.15 11.65 -7.95 8.45 -5.0 3.95 -4.5 1.0 -3.2 -3.05 0.0 -4.45" fill="#ffffff" fill-rule="evenodd" stroke="none"/>
      <path d="M0.0 -4.45 Q1.55 -5.2 2.85 -5.1 6.95 -5.45 8.2 -1.2 9.4 2.75 7.3 5.6 7.5 7.95 6.9 9.65 6.45 11.0 4.9 10.4 5.35 7.4 4.6 6.35 4.2 5.9 3.9 8.05 L3.7 10.4 Q3.1 12.65 -1.55 14.05 -6.35 15.45 -8.9 13.7 -10.15 11.65 -7.95 8.45 -5.0 3.95 -4.5 1.0 -3.2 -3.05 0.0 -4.45" fill="#ffffff" fill-rule="evenodd" stroke="none"/>
      <path d="M2.85 -5.1 Q1.55 -5.2 0.0 -4.45 -3.15 -3.05 -4.45 1.0 -4.95 3.95 -7.95 8.5 -10.15 11.65 -8.9 13.7 -6.3 15.45 -1.5 14.05 3.15 12.65 3.7 10.4 L3.9 8.1 Q4.15 5.9 4.6 6.35 5.4 7.4 4.85 10.4 6.4 11.0 6.8 9.7 7.5 7.95 7.25 5.65 9.45 2.8 8.25 -1.2 7.0 -5.45 2.85 -5.1 Z" fill="none" stroke="#50617d" stroke-linecap="round" stroke-linejoin="round" stroke-width="1.0"/>
      <path d="M6.95 5.4 L6.95 7.75 Q6.7 9.45 6.35 9.85 5.75 10.65 5.25 10.25 5.7 8.8 5.5 7.3 5.2 5.75 4.35 5.8 L3.3 10.45 Q1.85 12.65 -2.05 13.55 -5.6 14.35 -7.95 13.45 L-8.75 12.7 -8.7 11.7 Q0.4 12.3 2.05 8.45 L3.4 5.6 Q4.5 4.3 7.45 4.15 7.2 5.35 6.95 5.4" fill="#73c2f4" fill-rule="evenodd" stroke="none"/>
      <path d="M-3.6 9.45 L-2.1 6.3 -1.3 3.35 Q-0.5 0.45 0.4 -0.3" fill="none" stroke="#809cc9" stroke-linecap="round" stroke-linejoin="round" stroke-width="0.75"/>
      <path d="M4.55 6.95 Q4.85 7.65 4.7 11.1 4.35 11.0 4.3 10.6 L4.55 6.95" fill="#2f4968" fill-rule="evenodd" stroke="none"/>
    </g>
  </defs>
</svg>
